flaticon/religion/monastery.svg

<svg xmlns="http://www.w3.org/2000/svg" width="32" height="32" viewBox="0 0 24 24">
    <path d="M 20.800781 2.832031 L 20.800781 2 L 21.601562 2 C 21.820312 2 22 1.820312 22 1.601562 C 22 1.378906 21.820312 1.199219 21.601562 1.199219 L 20.800781 1.199219 L 20.800781 0.398438 C 20.800781 0.179688 20.621094 0 20.398438 0 C 20.179688 0 20 0.179688 20 0.398438 L 20 1.199219 L 19.199219 1.199219 C 18.980469 1.199219 18.800781 1.378906 18.800781 1.601562 C 18.800781 1.820312 18.980469 2 19.199219 2 L 20 2 L 20 2.832031 C 18.644531 3.027344 17.601562 4.191406 17.601562 5.601562 L 17.601562 13.035156 L 16.164062 11.601562 L 16.398438 11.601562 C 16.621094 11.601562 16.800781 11.421875 16.800781 11.199219 C 16.800781 10.980469 16.621094 10.800781 16.398438 10.800781 L 15.578125 10.800781 C 15.421875 9.410156 14.476562 8.261719 13.199219 7.808594 L 13.199219 6 L 14.398438 6 C 14.621094 6 14.800781 5.820312 14.800781 5.601562 L 14.800781 4 C 14.800781 3.777344 14.621094 3.601562 14.398438 3.601562 L 13.199219 3.601562 L 13.199219 2.398438 C 13.199219 2.179688 13.019531 2 12.800781 2 L 11.199219 2 C 10.980469 2 10.800781 2.179688 10.800781 2.398438 L 10.800781 3.601562 L 9.601562 3.601562 C 9.378906 3.601562 9.199219 3.777344 9.199219 4 L 9.199219 5.601562 C 9.199219 5.820312 9.378906 6 9.601562 6 L 10.800781 6 L 10.800781 7.808594 C 9.523438 8.261719 8.578125 9.410156 8.421875 10.800781 L 7.601562 10.800781 C 7.378906 10.800781 7.199219 10.980469 7.199219 11.199219 C 7.199219 11.421875 7.378906 11.601562 7.601562 11.601562 L 7.835938 11.601562 L 6.398438 13.035156 L 6.398438 5.601562 C 6.398438 4.191406 5.355469 3.027344 4 2.832031 L 4 2 L 4.800781 2 C 5.019531 2 5.199219 1.820312 5.199219 1.601562 C 5.199219 1.378906 5.019531 1.199219 4.800781 1.199219 L 4 1.199219 L 4 0.398438 C 4 0.179688 3.820312 0 3.601562 0 C 3.378906 0 3.199219 0.179688 3.199219 0.398438 L 3.199219 1.199219 L 2.398438 1.199219 C 2.179688 1.199219 2 1.378906 2 1.601562 C 2 1.820312 2.179688 2 2.398438 2 L 3.199219 2 L 3.199219 2.832031 C 1.84375 3.027344 0.800781 4.191406 0.800781 5.601562 L 0.800781 23.601562 C 0.800781 23.820312 0.980469 24 1.199219 24 L 22.800781 24 C 23.019531 24 23.199219 23.820312 23.199219 23.601562 L 23.199219 5.601562 C 23.199219 4.191406 22.15625 3.027344 20.800781 2.832031 Z M 20.398438 3.601562 C 21.367188 3.601562 22.175781 4.289062 22.359375 5.199219 L 18.441406 5.199219 C 18.625 4.289062 19.433594 3.601562 20.398438 3.601562 Z M 11.601562 7.601562 L 11.601562 5.601562 C 11.601562 5.378906 11.421875 5.199219 11.199219 5.199219 L 10 5.199219 L 10 4.398438 L 11.199219 4.398438 C 11.421875 4.398438 11.601562 4.222656 11.601562 4 L 11.601562 2.800781 L 12.398438 2.800781 L 12.398438 4 C 12.398438 4.222656 12.578125 4.398438 12.800781 4.398438 L 14 4.398438 L 14 5.199219 L 12.800781 5.199219 C 12.578125 5.199219 12.398438 5.378906 12.398438 5.601562 L 12.398438 7.601562 Z M 12 8.398438 C 13.410156 8.398438 14.578125 9.445312 14.773438 10.800781 L 9.226562 10.800781 C 9.421875 9.445312 10.589844 8.398438 12 8.398438 Z M 3.601562 3.601562 C 4.566406 3.601562 5.375 4.289062 5.558594 5.199219 L 1.640625 5.199219 C 1.824219 4.289062 2.632812 3.601562 3.601562 3.601562 Z M 9.601562 23.199219 L 9.601562 17.199219 C 9.601562 15.875 10.675781 14.800781 12 14.800781 C 13.324219 14.800781 14.398438 15.875 14.398438 17.199219 L 14.398438 23.199219 Z M 22.398438 23.199219 L 15.199219 23.199219 L 15.199219 17.199219 C 15.199219 15.4375 13.765625 14 12 14 C 10.234375 14 8.800781 15.4375 8.800781 17.199219 L 8.800781 23.199219 L 1.601562 23.199219 L 1.601562 6 L 5.601562 6 L 5.601562 14 C 5.601562 14.160156 5.695312 14.308594 5.847656 14.371094 C 5.996094 14.429688 6.167969 14.398438 6.28125 14.28125 L 8.964844 11.601562 L 15.035156 11.601562 L 17.71875 14.28125 C 17.832031 14.398438 18.003906 14.433594 18.152344 14.371094 C 18.304688 14.308594 18.398438 14.160156 18.398438 14 L 18.398438 6 L 22.398438 6 Z M 22.398438 23.199219"/>
    <path d="M5.199219 8.800781C5.199219 7.917969 4.480469 7.199219 3.601562 7.199219 2.71875 7.199219 2 7.917969 2 8.800781L2 12.800781 5.199219 12.800781zM4.398438 12L2.800781 12 2.800781 8.800781C2.800781 8.359375 3.160156 8 3.601562 8 4.042969 8 4.398438 8.359375 4.398438 8.800781zM6.398438 15.601562C5.917969 15.601562 5.492188 15.816406 5.199219 16.152344 4.90625 15.816406 4.480469 15.601562 4 15.601562 3.117188 15.601562 2.398438 16.316406 2.398438 17.199219L2.398438 21.199219 8 21.199219 8 17.199219C8 16.316406 7.28125 15.601562 6.398438 15.601562zM4.800781 20.398438L3.199219 20.398438 3.199219 17.199219C3.199219 16.757812 3.558594 16.398438 4 16.398438 4.441406 16.398438 4.800781 16.757812 4.800781 17.199219zM7.199219 20.398438L5.601562 20.398438 5.601562 17.199219C5.601562 16.757812 5.957031 16.398438 6.398438 16.398438 6.839844 16.398438 7.199219 16.757812 7.199219 17.199219zM17.601562 15.601562C16.71875 15.601562 16 16.316406 16 17.199219L16 21.199219 21.601562 21.199219 21.601562 17.199219C21.601562 16.316406 20.882812 15.601562 20 15.601562 19.519531 15.601562 19.09375 15.816406 18.800781 16.152344 18.507812 15.816406 18.082031 15.601562 17.601562 15.601562zM20 16.398438C20.441406 16.398438 20.800781 16.757812 20.800781 17.199219L20.800781 20.398438 19.199219 20.398438 19.199219 17.199219C19.199219 16.757812 19.558594 16.398438 20 16.398438zM18.398438 20.398438L16.800781 20.398438 16.800781 17.199219C16.800781 16.757812 17.160156 16.398438 17.601562 16.398438 18.042969 16.398438 18.398438 16.757812 18.398438 17.199219zM22 8.800781C22 7.917969 21.28125 7.199219 20.398438 7.199219 19.519531 7.199219 18.800781 7.917969 18.800781 8.800781L18.800781 12.800781 22 12.800781zM21.199219 12L19.601562 12 19.601562 8.800781C19.601562 8.359375 19.957031 8 20.398438 8 20.839844 8 21.199219 8.359375 21.199219 8.800781zM21.199219 12"/>
</svg>

<svg xmlns="http://www.w3.org/2000/svg" width="32" height="32" viewBox="0 0 24 24">
    <path d="M20.8 2.832V2h.802a.4.4 0 0 0 0-.8H20.8V.397a.401.401 0 0 0-.801 0V1.2h-.8a.401.401 0 0 0 0 .801h.8v.832a2.8 2.8 0 0 0-2.398 2.77v7.433l-1.438-1.433h.234a.401.401 0 0 0 0-.8l-.82-.001A3.608 3.608 0 0 0 13.2 7.809V6h1.2c.222 0 .402-.18.402-.398V4a.398.398 0 0 0-.403-.398H13.2V2.398A.4.4 0 0 0 12.801 2h-1.602a.4.4 0 0 0-.398.398v1.204H9.6A.398.398 0 0 0 9.2 4v1.602c0 .218.18.398.403.398H10.8v1.809A3.608 3.608 0 0 0 8.42 10.8h-.82a.401.401 0 1 0 0 .8h.235l-1.438 1.434V5.602A2.8 2.8 0 0 0 4 2.832V2h.8a.4.4 0 0 0 0-.8H4V.397a.4.4 0 0 0-.8 0V1.2h-.802a.401.401 0 0 0 0 .801H3.2v.832a2.8 2.8 0 0 0-2.398 2.77v18a.4.4 0 0 0 .398.398h21.602a.4.4 0 0 0 .398-.398v-18a2.8 2.8 0 0 0-2.398-2.77zm-.402.77a2 2 0 0 1 1.961 1.597h-3.918a1.999 1.999 0 0 1 1.957-1.597zm-8.796 4v-2a.402.402 0 0 0-.403-.403H10v-.8h1.2A.398.398 0 0 0 11.601 4V2.8h.796V4c0 .223.18.398.403.398H14V5.2h-1.2a.402.402 0 0 0-.402.403v2zm.398.796a2.807 2.807 0 0 1 2.773 2.403H9.227A2.807 2.807 0 0 1 12 8.398zM3.602 3.602c.964 0 1.773.687 1.957 1.597H1.64A2 2 0 0 1 3.6 3.602zm6 19.597v-6a2.399 2.399 0 0 1 4.796 0v6zm12.796 0H15.2v-6C15.2 15.437 13.766 14 12 14a3.203 3.203 0 0 0-3.2 3.2v6H1.603V6h4v8a.4.4 0 0 0 .246.371c.148.059.32.027.433-.09l2.684-2.68h6.07l2.684 2.68a.391.391 0 0 0 .433.09.4.4 0 0 0 .246-.371V6h4zm0 0"/>
    <path d="M5.2 8.8c0-.882-.72-1.6-1.598-1.6C2.719 7.2 2 7.917 2 8.8v4h3.2zM4.397 12H2.801V8.8a.799.799 0 0 1 1.598 0zm0 0M6.398 15.602c-.48 0-.906.214-1.199.55A1.585 1.585 0 0 0 4 15.602a1.6 1.6 0 0 0-1.602 1.597v4H8v-4a1.6 1.6 0 0 0-1.602-1.597zm-1.597 4.796H3.199V17.2a.802.802 0 0 1 1.602 0zm2.398 0H5.602V17.2a.799.799 0 1 1 1.597 0zm0 0M17.602 15.602A1.6 1.6 0 0 0 16 17.199v4h5.602v-4A1.6 1.6 0 0 0 20 15.602c-.48 0-.906.214-1.2.55a1.585 1.585 0 0 0-1.198-.55zm2.398.796c.441 0 .8.36.8.801v3.2h-1.6v-3.2c0-.441.359-.8.8-.8zm-1.602 4h-1.597V17.2a.799.799 0 0 1 1.598 0zm0 0M22 8.8c0-.882-.719-1.6-1.602-1.6-.878 0-1.597.718-1.597 1.6v4H22zm-.8 3.2h-1.598V8.8a.799.799 0 1 1 1.597 0zm0 0"/>
</svg>
